X:0153
T:Sam Jones
C:Virginian
M:C
L:1/8
Q:1/2=80
I: :: ::
Z:Jack Campin * www.campin.me.uk * 2009
K:G
G2GA B>AG>A|B(c/B/) c>A B>cB>A|G2      G>A B>AG>A|B(c/B/) c>A B>AG>D:|
d2dc B>BGA |Bc/B/   cA  BcBc  |d(e/f/) g>d B>AG>A|B>B     c>A G>AG>D:|

